X: 15307
T: Girls Of Grallagh
R: jig
M: 6/8
K: Gmajor
D|:GBd dBA|B2G GFG|E2c cBA|GAB A2D|
GBd dBA|B2G GFG|E2c DFA|1 AGF G2D:|2 AGF G2d||
|:d^cd e2d|dgd B2A|G2E EDE|GAB A2d|
d^cd e2d|dgd B2A|G2E DBA|1 G3 G2d:|2 G3 G2D||

